X: 1
T: Flodens dd
R: Polska
S: efter August Bohlin
N: namnet kommer av en uppsttning av Strindbergs Hemsborna d denna lt spelades.
O: Uppland
M: 3/4
K: Gm
L: 1/16
d2d2 e2e2 d2d2 | c2c2 d4 A2>A2 | (BA)Bd (ce)cA (Bd)BG | (Ac)A^F G2GD B,2D2 |
d2d2 e2e2 d2d2 | c2c2 d4 A2>A2 | (BA)Bd (ce)cA (Bd)BG |1 (Ac)A^F G8 :|2 (Ac)A^F G6A2 |]
B2>B2 ((3A2A2^F2) A2D2 | G2>A2 (BA)Bc d2d2 | B2>B2 ((3A2A2^F2) A2D2 | 
G2>A2 (BA)Bc d2d2 | e2>d2 (cd)cB (AB)AG | ^F2A^F G4 :|
